usr/share/icons/biglinux-icons-material-dark/22/actions/kr_diskusage.svg

<svg xmlns="http://www.w3.org/2000/svg" viewBox="0 0 22 22">
  <defs id="defs3051">
    <style type="text/css" id="current-color-scheme">
      .ColorScheme-Text {
        color:#dedede;
      }
      </style>
  </defs>
 <path 
     style="fill:currentColor;fill-opacity:1;stroke:none" 
     d="M 11 3 C 6.568 3 3 6.568 3 11 C 3 15.432 6.568 19 11 19 C 15.432 19 19 15.432 19 11 C 19 6.568 15.432 3 11 3 z M 11 4 C 14.878 4 18 7.122 18 11 C 18 14.878 14.878 18 11 18 C 7.122 18 4 14.878 4 11 C 4 7.122 7.122 4 11 4 z M 11 7 C 8.784 7 7 8.784 7 11 C 7 13.216 8.784 15 11 15 C 13.216 15 15 13.216 15 11 C 15 10.59342 14.922306 10.208989 14.810547 9.8398438 C 14.929215 9.5837823 15 9.3017595 15 9 C 15 7.892 14.108 7 13 7 C 12.698241 7 12.416218 7.0707852 12.160156 7.1894531 C 11.791011 7.0776938 11.40658 7 11 7 z M 11 8 C 11.089707 8 11.172412 8.023128 11.259766 8.03125 C 11.099363 8.3193368 11 8.6455913 11 9 C 11 10.108 11.892 11 13 11 C 13.354409 11 13.680663 10.900637 13.96875 10.740234 C 13.976871 10.827588 14 10.910293 14 11 C 14 12.662 12.662 14 11 14 C 9.338 14 8 12.662 8 11 C 8 9.338 9.338 8 11 8 z M 13 8 C 13.554 8 14 8.446 14 9 C 14 9.139775 13.971667 9.2724281 13.919922 9.3925781 C 13.868177 9.5127281 13.793022 9.6203725 13.701172 9.7109375 C 13.520826 9.8887566 13.27445 10 13 10 C 12.446 10 12 9.554 12 9 C 12 8.7255501 12.111243 8.4791739 12.289062 8.2988281 C 12.379627 8.2069781 12.487272 8.1318231 12.607422 8.0800781 C 12.727572 8.0283331 12.860225 8 13 8 z "
     class="ColorScheme-Text"
     />
</svg>

<svg xmlns="http://www.w3.org/2000/svg" viewBox="0 0 22 22">
<defs id="defs3051">
<style id="current-color-scheme" type="text/css">
.ColorScheme-Text{color:#dedede}
</style>
</defs>
<path d="M11 3c-4.432 0-8 3.568-8 8s3.568 8 8 8 8-3.568 8-8-3.568-8-8-8m0 1c3.878 0 7 3.122 7 7s-3.122 7-7 7-7-3.122-7-7 3.122-7 7-7m0 3c-2.216 0-4 1.784-4 4s1.784 4 4 4 4-1.784 4-4a4 4 0 0 0-.19-1.16 1.996 1.996 0 0 0-2.65-2.65A4 4 0 0 0 11 7m0 1c.09 0 .172.023.26.031A2 2 0 0 0 11 9c0 1.108.892 2 2 2 .354 0 .68-.1.969-.26.008.088.031.17.031.26 0 1.662-1.338 3-3 3s-3-1.338-3-3 1.338-3 3-3m2 0a.998.998 0 0 1 .701 1.71.998.998 0 0 1-1.412-1.412q.136-.138.318-.218A1 1 0 0 1 13 8" class="ColorScheme-Text" style="fill:currentColor;fill-opacity:1;stroke:none"/>
</svg>
